X:59
T:In The Bleak MidWinter
%%stretchlast false
M:4/4
L:1/4
K:Eb clef=C1
"^I"[Eg] [EBeg]/ [FBeg]/ "^I¹"[GBeg]/ [GBea]/ "^i"[EBeb] | "^vi7"[CEBg] [CGcf] "^ii"[CGcf] "^vi"[CGce] | "^IVmaj7"[A,Gce] "^ii¹"[A,Fcf]/ [B,Fcf]/ [A,Fcf]/ [A,Ccg]/ [G,Ccf] | "^vi"[F,EBc] [F,EAf] [B,EAf] "^V7"[B,DAf] | [DEAf] "^I"[EBg]/ [EFBg]/ [EGBg]/ "^I¹"[GBea]/ "^i"[EBeb] | "^vi7"[CEBg] [CGcf] "^ii"[CGcf] "^vi"[CGce] | "^IVmaj7"[A,Gce] "^ii7¹"[A,cef] "^vi7³"[B,ceg] "^V7"[B,Adf]/ [EAdf]/ | "^i"[EAdf]/ "^I"[EGe]/ [EGe]2 [EGe] | "^vi"[CGe] "^IV¹"[CAea]/ "^i"[EAea]/ "^IV¹"[CAea]/ "^vi7"[CBeg]/ "^i"[B,Aea] | "^♯vi"[A,G_db] "^vi+"[A,Acc'] [CAcc'] "^vi"[CGeg] | "^I¹"[G,Geg] [G,Eeb] "^♯iii°"[A,Bdg] "^ii¹"[A,Acf] | "^vi7³"[B,Gce] "^V"[B,FBd]3 | [EFBd] "^I"[EBg]/ [EFBg]/ [EGBg]/ "^I¹"[GBea]/ "^i"[EBeb] | "^vi7"[CEBg] [CGcf] "^ii"[CGcf] "^vi"[CGce] | "^IVmaj7"[A,Gce] "^ii7¹"[A,cef] "^vi7³"[B,ceg] "^V7"[B,Adf]/ [EAdf]/ | "^i"[EAdf]/ "^I"[EGe]/ [EGe]3 |]
